;For Tobu Tobu Girl
;Compile with MMLGB
A r=6 l=1 v14 @wd2 o6 f>e<a+r=19
A o7 @wd0 v12 l=2
A br>cr<a+r v6 br>cr<a+r v3 br>v2 a+rbr>cr<v1 a+rb

D l=2 v15 o3 a+ o7 b o5 br=16 @ve-1 l=4
D v14 o5 b>a v12 b=14
D v8 aa+ v4 b=14
D v3 aa+ v1 b=14